icons/svg/accessibility.svg

<svg width="24" height="24" viewBox="0 0 24 24" fill="none" xmlns="http://www.w3.org/2000/svg">
<path d="M6.86723 5.5434C6.11251 5.10877 5.14746 5.3667 4.71173 6.11949C4.27599 6.87228 4.53458 7.83487 5.28929 8.2695L7.91894 9.78386C8.22888 9.96235 8.4199 10.2928 8.4199 10.6504V14.1856C8.4199 14.3615 8.37349 14.5343 8.28537 14.6865L5.87663 18.848C5.44089 19.6008 5.69948 20.5633 6.45419 20.998C7.20891 21.4326 8.17395 21.1747 8.60969 20.4219L11.8675 14.7935H12.1264L15.3843 20.4219C15.82 21.1747 16.7851 21.4326 17.5398 20.998C18.2945 20.5633 18.5531 19.6008 18.1173 18.848L15.7148 14.6971C15.6266 14.5449 15.5802 14.3721 15.5802 14.1962V10.6504C15.5802 10.2928 15.7712 9.96235 16.0812 9.78386L18.7108 8.2695C19.4655 7.83487 19.7241 6.87228 19.2884 6.11949C18.8527 5.3667 17.8876 5.10877 17.1329 5.5434L13.4972 7.63713C12.5705 8.17082 11.4297 8.17082 10.5029 7.63713L6.86723 5.5434Z" stroke="currentColor" stroke-width="1.5" stroke-linecap="round" stroke-linejoin="round"/>
<path d="M14.6232 5.41421C14.6232 6.86296 13.4488 8.0374 12 8.0374C10.5513 8.0374 9.37683 6.86296 9.37683 5.41421C9.37683 3.96546 10.5513 2.79102 12 2.79102C13.4488 2.79102 14.6232 3.96546 14.6232 5.41421Z" stroke="currentColor" stroke-width="1.5" stroke-linecap="round" stroke-linejoin="round"/>
</svg>

<svg xmlns="http://www.w3.org/2000/svg" width="24" height="24" fill="none" viewBox="0 0 24 24"><path stroke="currentColor" stroke-linecap="round" stroke-linejoin="round" stroke-width="1.5" d="M6.867 5.543a1.58 1.58 0 0 0-2.155.576 1.57 1.57 0 0 0 .577 2.15l2.63 1.515a1 1 0 0 1 .5.866v3.536a1 1 0 0 1-.134.5l-2.408 4.162a1.57 1.57 0 0 0 .577 2.15 1.58 1.58 0 0 0 2.156-.576l3.258-5.629h.258l3.258 5.629a1.58 1.58 0 0 0 2.156.576 1.57 1.57 0 0 0 .577-2.15l-2.402-4.15a1 1 0 0 1-.135-.502V10.65a1 1 0 0 1 .501-.866l2.63-1.514a1.57 1.57 0 0 0 .577-2.15 1.58 1.58 0 0 0-2.155-.577l-3.636 2.094a3 3 0 0 1-2.994 0z"/><path stroke="currentColor" stroke-linecap="round" stroke-linejoin="round" stroke-width="1.5" d="M14.623 5.414a2.623 2.623 0 1 1-5.246 0 2.623 2.623 0 0 1 5.246 0"/></svg>
